X: 82
T: McKenna's
T: Reel, A Dorian
L: 1/16
M: C|
K: A Dorian
c2B2| e2a2 a1a1a2 b2a2 a1a1a2| b2a2a2b2 a2g2e2d2| e2g2 g1g1g2 a2g2 g1g1g2| a2g2b2g2 a2g2e2d2| 
e2a2 a1a1a2 b2a2 a1a1a2| b2a2a2b2 a2g2e2g2| a2g2e2d2 e2d2B2A2| G2A2B2G2 A4 ||
g2f2| e2A2 A1A1A2 e2d2B2A2| B2d2e2f2 g2f2e2d2| B2G2 G1G1G2 D2G2G2A2| B2d2e2f2 g4f2g2| 
e2A2 A1A1A2 e2d2B2A2| B2d2e2f2 g4f2g2| a2g2e2d2 e2d2B2A2| G2A2B2G2 A4 ||
D: Rodney Macdonald, Dancer's Delight, RMD1, 1995
